X:1
T:The Last Great Day
T:Barney Elliott Warren
T:The Last Great Day
T:Public Domain
T:Public Domain
C:Barney Elliott Warren
Z:Public Domain
%%score ( 1 2 ) ( 3 4 )
L:1/8
M:3/4
K:Eb
V:1 treble 
V:2 treble 
V:3 bass 
V:4 bass 
V:1
 [GB]2 | [Ac][GB] [EG]2 [B,E]2 | C[CE] [CE]2 E2 | [DF][DF] [DF]2 (E[DF]) | ([EG] [GB]3) [GB]2 | %5
w: 1.~The|earth shall melt with|fer- vent heat, The|pass a- way, And *|man- * kind|
w: 2.~The|trump will sound, the|Lord re- turn, And|long- er stay, The *|in * judg-|
w: 3.~The|el- e- ments that|now com- pose The|which we stay, To *|and * va-|
w: 4.~So,|all who make this|world their god, Can|long- er stay; Their *|est * hopes|
w: 5.~The|quick and dead, o’er|land and sea, Will|mor- tal clay; And *|on * im-|
w: 6.~The|Church of God no|more shall need, This|res- trial home; For *|shall * dwell|
 [Ac][GB] [EG]2 [B,E]2 | C[CE] [CE]2 [Ec][Ec] | [EG]4 [DF]2 | E4 ||[M:4/4]"^Refrain" [GB][GB] | %10
w: their doom shall meet,|In that last great day.||||
w: ment flames con- sume,|In that last great day.||||
w: por must dis- solve,|In that last great day.|that last|great|is com-|
w: will all have fled,|In that last great day.||||
w: mor- tal- i- ty,|In that last great day.||||
w: with Christ, her head,|At the last great day.||||
 [Ac]2 [Ac]2 A2 [Ac]2 | [Ac][GB][GB][EG] [GB]2 [EG][EG] | [DF]2 [EG]2 [FA]2 [EG][DF] | %13
w: |||
w: |||
w: ing ve- ry soon,|the judg- ment day, and the lost|shall weep; ’Tis the crown-|
w: |||
w: |||
w: |||
 [EG]2 [FA]2 [GB]2 [GB][GB] | [Ac]2 [Ac]2 [ce]2 [Bd][Ac] | [GB]2 [GB]2 [EG]2 [Ac][Ac] | %16
w: |||
w: |||
w: ing day, and the saints|shall greet In that last|great day. * * *|
w: |||
w: |||
w: |||
 [EG]4 [DF]4 | E4 |] %18
w: ||
w: ||
w: ||
w: ||
w: ||
w: ||
V:2
 x2 | x6 | C x2 E2 x | x4 E x | x6 | x6 | C x5 | x6 | E4 ||[M:4/4] x2 | x4 A2 x2 | x8 | x8 | x8 | %14
w: ||heav- ens|all|||||||||||
w: ||time no|world|||||||||||
w: ||ball on|smoke|||Oh,||day,||’Tis||||
w: ||here no|fond-|||||||||||
w: ||leave their|put|||||||||||
w: ||poor ter-|she|||||||||||
 x8 | x8 | x8 | E4 |] %18
w: ||||
w: ||||
w: ||||
w: ||||
w: ||||
w: ||||
V:3
 [E,E]2 | [E,E][E,E] [E,B,]2 [E,G,]2 | [A,,A,][A,,A,] [A,,A,]2 [A,,C]2 | %3
 [B,,B,][B,,B,] [B,,B,]2 (C,D,) | (B, E3) [E,E]2 | [E,E][E,E] [E,B,]2 [E,G,]2 | %6
 [A,,A,][A,,A,] [A,,A,]2 [A,,A,][A,,C] | [B,,B,]4 [B,,A,]2 | [E,G,]4 ||[M:4/4] [E,E][E,E] | %10
 [A,E]2 [A,E]2 [A,C]2 [A,E]2 | [E,E][E,E][E,E][E,B,] [E,E]2 [E,B,][E,B,] | %12
 [B,,B,]2 [B,,B,]2 [B,,B,]2 [B,,B,][B,,B,] | [E,B,]2 [E,B,]2 [E,E]2 [E,E][E,E] | %14
 [A,E]2 [A,E]2 [A,E]2 [A,E][A,E] | [E,E]2 [E,E]2 [E,B,]2 [A,,E][A,,E] | [B,,B,]4 [B,,A,]4 | %17
 [E,G,]4 |] %18
V:4
 x2 | x6 | x6 | x4 B,2 | E,4 x2 | x6 | x6 | x6 | x4 ||[M:4/4] x2 | x8 | x8 | x8 | x8 | x8 | x8 | %16
 x8 | x4 |] %18

